!!!!SEGMENT: pl-wn--mus-iii-94-651--002_zelenski-wladyslaw--trzy-piesni-op-19-jaskolka.krn
!!!cenid: 18xx:3689
!!!COM: Żeleński, Władysław
!!!COM-rismID:
!!!CDT:
!!!CNT:
!!!GTL: Trzy pieśni op. 19
!!!OTL: Jaskółka
!!!PDT:
!!!AGN:
!!!SMS-siglum: PL-Wn
!!!SMS-shelfmark: Mus.III.94.651
!!!SMS-shelfwork: 002 G
!!!SMS-variant:
!!!SMS-altvar:
!!!NIFC-rismSourceID:
!!!NIFC-islandoraID:
!!!URL-pdf-islandora:
!!!URL-scan: https://polona.pl/item/trzy-piesni-z-towarzyszeniem-fortepianu-dzielo-19,NzQ3Nzg5MjA/0/#info:metadata @EN{Scan on Polona} @PL{Skany w portalu Polona}
!!!ONB-nifc:
!!!AIN: 2 piano 1 vox
!!!key: F
**kern	**kern	**dynam	**kern	**text	**dynam
*part3	*part2	*part2	*part1	*part1	*part1
*staff3	*staff2	*	*staff1	*staff1	*
*I"FORTEPIAN.	*I"FORTEPIAN.	*	*I"ŚPIEW.	*	*
*I'pf	*I'pf	*	*I'V	*	*
*ICklav	*ICklav	*	*ICvox	*	*
*Ipiano	*Ipiano	*	*Ivox	*	*
*clefF4	*clefG2	*	*clefG2	*	*
*k[b-]	*k[b-]	*	*k[b-]	*	*
*F:	*F:	*	*F:	*	*
*M2/4	*M2/4	*	*M2/4	*	*
=1	=1	=1	=1	=1	=1
!	!LO:TX:a:i:t=leggiero	!	!LO:TX:a:B:t=Allegretto.	!	!
!LO:TX:b:i:t=stacc.	!	!LO:DY:b	!	!	!
8FF'\L	8r	p	2r	.	.
8C'\ 8A	4c^/ 4f 4cc	.	.	.	.
8FF'\	.	.	.	.	.
8C'\J 8A	8c'/ 8f 8cc	.	.	.	.
=2	=2	=2	=2	=2	=2
8FF'\L	8r	.	2r	.	.
8C'\ 8A	4c^/ 4f 4cc	.	.	.	.
8FF'\	.	.	.	.	.
8C'\J 8A	8c'/ 8f 8cc	.	.	.	.
=3	=3	=3	=3	=3	=3
!	!	!	!LO:TX:a:i:t=grazioso	!	!
8FF'\L	8r	.	(>8cc\	Cu-	.
8C'\ 8A	4c^/ 4f 4cc	.	4ff\)	.	.
8FF'\	.	.	.	.	.
8C'\J 8A	8c'/ 8f 8cc	.	8f/	-do	.
=4	=4	=4	=4	=4	=4
8FF\L	8r	.	(8g/L	na-	.
8C\ 8B-	4c^/ 4e 4cc	.	8a/J)	.	.
8FF\	.	.	4b-\	-sze	.
8C\J 8B-	8c'/ 8e 8cc	.	.	.	.
=5	=5	=5	=5	=5	=5
8FF\L	8r	.	(8a/	dziew-	.
8C\ 8A	4c^/ 4f 4cc	.	4cc\)	.	.
8FF\	.	.	.	.	.
8C\J 8A	8c'/ 8f 8cc	.	8f/	-czę	.
=6	=6	=6	=6	=6	=6
8FF\L	8r	.	(8g/L	na-	.
8C\ 8B-	4c^/ 4e 4cc	.	8a/J)	.	.
8FF\	.	.	4b-\	-sze	.
8C\J 8B-	8c'/ 8e 8cc	.	.	.	.
!!LO:LB:g=original	!	!	!	!	!
=7	=7	=7	=7	=7	=7
8FF\L	8r	.	(8a/	wy-	.
8C\ 8A	4c^/ 4f 4cc	.	4cc\	.	.
8FF\	.	.	.	.	.
8C\J 8A	8c'/ 8f 8cc	.	8f/)	.	.
=8	=8	=8	=8	=8	=8
8FF\L	8r	.	(8g/L	-bie-	.
8C\ 8B-	4c^/ 4e 4cc	.	8a/J)	.	.
8FF\	.	.	8b-\	-gło	.
8C\J 8B-	8c'/ 8e 8cc	.	8b-\	za	.
=9	=9	=9	=9	=9	=9
8FF\L	8r	.	(4a/	sio-	.
8C\J 8A	8c'/ 8f 8cc	.	.	.	.
8D\L	8r	.	4bn/)	.	.
8G\J	8f'/ 8bn	.	.	.	.
=10	=10	=10	=10	=10	=10
8C\L	8r	.	2cc\	-ło	.
8G\	4e^/ 4cc	.	.	.	.
8C\	.	.	.	.	.
8G\J	8e'/ 8cc	.	.	.	.
=11	=11	=11	=11	=11	=11
8FF\L	8r	.	(8cc\	Ja-	.
8C\ 8A	4c^/ 4f 4cc	.	4ff\)	.	.
8FF\	.	.	.	.	.
8C\J 8A	8c'/ 8f 8cc	.	8f/	-skó-	.
=12	=12	=12	=12	=12	=12
8FF\L	8r	.	(8g/L	-łecz-	.
8C\ 8B-	4c^/ 4e 4cc	.	8a/J)	.	.
8FF\	.	.	4b-\	-ka	.
8C\J 8B-	8c'/ 8e 8cc	.	.	.	.
=13	=13	=13	=13	=13	=13
8FF\L	8r	.	(8a\L	dro-	.
8C\ 8A	4c^/ 4f 4cc	.	16cc\L	.	.
.	.	.	16dd\JJ	.	.
8FF\	.	.	8cc\)	.	.
8C\J 8A	8c'/ 8f 8cc	.	8f/	-bne	.
!!LO:LB:g=original	!	!	!	!	!
=14	=14	=14	=14	=14	=14
8FF\L	8r	.	(8g/L	pta-	.
8C\ 8B-	4c^/ 4e 4cc	.	8a/J)	.	.
8FF\	.	.	4b-\	-szę	.
8C\J 8B-	8c'/ 8e 8cc	.	.	.	.
=15	=15	=15	=15	=15	=15
!	!	!	!	!	!LO:HP:a
8FF\L	8r	.	(8a\L	La-	<
!	!	!LO:HP:b	!	!	!
8C\J 8A	4c^/ 4f 4cc	<	16cc\L	.	.
.	.	.	16dd\JJ	.	.
8E-X\L	.	.	8cc\)	.	.
8F\J 8A 8c	8f/ 8cc	.	8f/	-ta	.
=16	=16	=16	=16	=16	=16
8D\L	8r	.	(8b-\L	przy	.
8F\J 8B- 8d	4f^/ 4b- 4dd	.	8dd\J)	.	.
8D\L	.	.	4ff\	niej	[
8F\J 8B-	8f'/ 8b- 8ff	[	.	.	.
=17	=17	=17	=17	=17	=17
!	!	!	!	!	!LO:HP:a
!	!	!LO:HP:b	!	!	!
8C\L	8r	>	(4a/	w ko-	>
8A\	4c^/ 4f 4cc	.	.	.	.
8C\	.	.	4g/)	.	]]
8B-\J	8c'/ 8e 8cc	]	.	.	.
=18	=18	=18	=18	=18	=18
8FF\L	8r	.	[2f/	-ło.	.
8C\ 8A	4c/ 4f 4cc	.	.	.	.
8FF\	.	.	.	.	.
8C\J 8A	[8f\ [8a [8ff	.	.	.	.
=19	=19	=19	=19	=19	=19
8FF\L	8f\] 8a] 8ff]	.	4f/]	.	.
8C\ 8B-	4a^\ 4cc 4aa	.	.	.	.
8FF\	.	.	4r	.	.
8C\J 8B-	8cc\ 8ff 8ccc	.	.	.	.
*clefG2	*	*	*	*	*
!!LO:LB:g=original	!	!	!	!	!
=20	=20	=20	=20	=20	=20
!	!	!	!LO:TX:a:i:t=piu stretto ed animato	!	!
!	!	!LO:DY:b	!	!	!
16B-/LL	16dd\LL	pp	8dd\	A	.
16f/	16ee\	.	.	.	.
16d/	16dd\	.	8dd\	tak	.
16f/JJ	16ddd\JJ	.	.	.	.
16G/LL	16b-\LL	.	8b-\	cza-	.
16d/	16cc\	.	.	.	.
16B-/	16b-\	.	8b-\	-sem	.
16d/JJ	16bb-\JJ	.	.	.	.
*clefF4	*	*	*	*	*
=21	=21	=21	=21	=21	=21
16E\LL	16g\LL	.	8g/	szyb-	.
16c#X\	16a\	.	.	.	.
16B-\	16g\	.	8g/	-ko	.
16c#\JJ	16gg\JJ	.	.	.	.
16C#X\LL	16e\LL	.	8e/	bie-	.
16B-\	16f\	.	.	.	.
16G\	16e\	.	8e/	-ży	.
16B-\JJ	16ee\JJ	.	.	.	.
=22	=22	=22	=22	=22	=22
16D\LL	16f\LL	.	8f/	pta-	.
16A\	16g\	.	.	.	.
16F\	16f\	.	8f/	-szę	.
16A\JJ	16ff\JJ	.	.	.	.
16D\LL	16d/LL	.	8d/	u-	.
16A\	16e/	.	.	.	.
16F\	16d/	.	8d/	-przy-	.
16A\JJ	16dd/JJ	.	.	.	.
=23	=23	=23	=23	=23	=23
16D\LL	16f\LL	.	8f/	-krzo-	.
16A\	16g\	.	.	.	.
16F\	16f\	.	8f/	-ne	.
16A\JJ	16ff\JJ	.	.	.	.
16D\LL	16a\LL	.	8a/	pta-	.
16A\	16b-\	.	.	.	.
16F\	16a\	.	8a/	-szę	.
16A\JJ	16aa\JJ	.	.	.	.
*clefG2	*	*	*	*	*
=24	=24	=24	=24	=24	=24
16B-/LL	16dd\LL	.	8dd\	Że	.
16f/	16ee\	.	.	.	.
16d/	16dd\	.	8dd\	o	.
16f/JJ	16ddd\JJ	.	.	.	.
16G/LL	16b-\LL	.	8b-\	led-	.
16d/	16cc\	.	.	.	.
16B-/	16b-\	.	8b-\	-wie	.
16d/JJ	16bb-\JJ	.	.	.	.
*clefF4	*	*	*	*	*
!!LO:LB:g=original	!	!	!	!	!
!!LO:PB:g=original	!	!	!	!	!
=25	=25	=25	=25	=25	=25
16E\LL	16g\LL	.	8g/	nie	.
16c#X\	16a\	.	.	.	.
16B-\	16g\	.	8g/	u-	.
16c#\JJ	16gg\JJ	.	.	.	.
16C#X\LL	16e\LL	.	8e/	-de-	.
16B-\	16f\	.	.	.	.
16G\	16e\	.	8e/	-rzy	.
16B-\JJ	16ee\JJ	.	.	.	.
=26	=26	=26	=26	=26	=26
16D\LL	16f\LL	.	8f/	w wło-	.
16A\	16g\	.	.	.	.
16F\	16f\	.	8f/	-sy	.
16A\JJ	16ff\JJ	.	.	.	.
16D\LL	16d/LL	.	8d/	jej	.
16A\	16e/	.	.	.	.
16F\	16d/	.	8d/	krę-	.
16A\JJ	16dd/JJ	.	.	.	.
=27	=27	=27	=27	=27	=27
16D\LL	16f\LL	.	8f/	-co-	.
16A\	16g\	.	.	.	.
16F\	16f\	.	8f/	-ne	.
16A\JJ	16ff\JJ	.	.	.	.
16D\LL	16a\LL	.	8a/	wło-	.
16A\	16b-\	.	.	.	.
16F\	16a\	.	8a/	-sy	.
16A\JJ	16aa\JJ	.	.	.	.
*clefG2	*	*	*	*	*
=28	=28	=28	=28	=28	=28
!	!	!	!	!	!LO:HP:a
!	!	!LO:HP:b:t=cresc	!	!	!
16B-/LL	16b-\LL	<	8b-\	a	<
16f/	16cc\	.	.	.	.
16d/	16b-\	.	8b-\	tak	.
16f/JJ	16bb-\JJ	.	.	.	.
16G/LL	16bn\LL	.	8bn\	cza-	.
16d/	16cc\	.	.	.	.
!	!LO:TX:b:i:t=poco	!	!LO:TX:a:i:t=poco	!	!
16B-/	16b\	.	8b\	-sem	.
16d/JJ	16bbn\JJ	.	.	.	.
=29	=29	=29	=29	=29	=29
16A/LL	16cc\LL	.	8cc\	szyb-	.
16e/	16dd\	.	.	.	.
!	!LO:TX:b:i:t=a	!	!LO:TX:a:i:t=a	!	!
16c/	16cc\	.	8cc\	-ko	.
16e/JJ	16ccc\JJ	.	.	.	.
!	!LO:TX:b:i:t=poco	!	!LO:TX:a:i:t=poco	!	!
16A/LL	16cc#X\LL	.	8cc#X\	bie-	.
16g/	16dd\	.	.	.	.
16e/	16cc#\	.	8cc#\	-ży	.
16g/JJ	16ccc#X\JJ	.	.	.	.
=30	=30	=30	=30	=30	=30
16B-/LL	16dd\LL	.	8dd\	pta-	.
16f/	16ee\	.	.	.	.
16d/	16dd\	.	8dd\	-szę	.
16f/JJ	16ddd\JJ	.	.	.	.
16c#X/LL	16ee\LL	.	8ee\	u-	.
16b-/	16ff\	.	.	.	.
16g/	16ee\	.	8ee\	-przy-	.
16b-/JJ	16eee\JJ	.	.	.	.
!!LO:LB:g=original	!	!	!	!	!
=31	=31	=31	=31	=31	=31
16d/LL	16ff\LL	.	8ff\	-krzo-	.
16a/	16gg\	.	.	.	.
16f/	16ff\	.	8ff\	-ne	.
16a/JJ	16fff\JJ	.	.	.	.
16d/LL	16bn\LL	.	8bn\	pta-	.
16g/	16cc\	.	.	.	.
16f/	16b\	.	8b\	-szę	.
16g/JJ	16bbn\JJ	.	.	.	.
=32	=32	=32	=32	=32	=32
*^	*	*	*	*	*
!	!	!LO:TX:b:i:t=ritard. e dim.	!	!LO:TX:a:i:t=ritard. e dim	!	!
4e/ 4g	[2c\	16cc\LL	.	4cc\	u-	.
.	.	16dd\	.	.	.	.
.	.	16cc\	.	.	.	.
.	.	16ccc\JJ	.	.	.	.
4f/ 4a-X	.	16dd-X\LL	.	4dd-X\	-przy-	.
.	.	16ee-X\	.	.	.	.
.	.	16dd-\	.	.	.	.
.	.	16ddd-X\JJ	.	.	.	.
=33	=33	=33	=33	=33	=33	=33
4e/ 4g	2c\]	16cc\LL	.	(4cc\	-krzo-	.
.	.	16ddn\	.	.	.	.
.	.	16cc\	.	.	.	.
.	.	16ccc\JJ	.	.	.	.
4f/ 4a-X	.	16dd\LL	.	4ddn\)	.	.
.	.	16ee\	.	.	.	.
.	.	16dd\	.	.	.	.
.	.	16ddd\JJ	.	.	.	.
*v	*v	*	*	*	*	*
=34	=34	=34	=34	=34	=34
2c/ 2e 2g	16cc\LL	.	[2cc\	-ne,	.
.	16dd\	.	.	.	.
.	16cc\	.	.	.	.
.	16ccc\JJ	.	.	.	.
.	16cc\LL	.	.	.	.
.	16dd\	.	.	.	.
.	16cc\	.	.	.	.
.	16ccc\JJ	.	.	.	.
=35	=35	=35	=35	=35	=35
2c/ 2e 2g	16cc\LL	.	2cc\]	.	.
.	16dd\	.	.	.	.
.	16cc\	.	.	.	.
.	16ccc\JJ	.	.	.	.
.	20cc\LL	.	.	.	.
!	!LO:TX:t=P:problem=klamra łukowa i 5	!	!	!	!
.	20dd\	.	.	.	.
.	20cc\	.	.	.	.
.	20ccc\	.	.	.	.
.	20cc\JJ	.	.	.	.
*clefF4	*	*	*	*	*
=36	=36	=36	=36	=36	=36
!	!LO:TX:b:i:t=a tempo	!	!LO:TX:a:i:t=a tempo	!	!LO:DY:a
8FF'\L	(16ff\LL	.	(8cc\	że	p
.	16ee\	.	.	.	.
8C'\J 8A	16dd\	.	4ff\)	.	.
.	16cc\JJ	.	.	.	.
8FF'\L	16b-/LL	.	.	.	.
.	16a/	.	.	.	.
8C'\J 8A	16g/	.	8f/	o	.
.	16f/JJ	.	.	.	.
!!LO:LB:g=original	!	!	!	!	!
=37	=37	=37	=37	=37	=37
!LO:TX:b:i:t=stacc.	!LO:TX:b:i:t=leggiero	!	!	!	!
8FF\L	16cc/LL	.	(8g/L	led-	.
.	16b-/	.	.	.	.
8C\J 8B-	16a/	.	8a/J)	.	.
.	16g/JJ	.	.	.	.
8FF\L	16f/LL	.	4b-\	-dwie	.
.	16e/	.	.	.	.
8C\J 8B-	16d/	.	.	.	.
.	16c/JJ)	.	.	.	.
=38	=38	=38	=38	=38	=38
8FF\L	(16f/LL	.	(8a\L	nie	.
.	16a/	.	.	.	.
8C\J 8A	16cc/	.	16cc\L	.	.
.	16dd/JJ	.	16dd\JJ	.	.
8FF\L	16cc/LL	.	8cc\)	.	.
.	16a/	.	.	.	.
8C\J 8A	16f/	.	8f/	u-	.
.	16a/JJ	.	.	.	.
=39	=39	=39	=39	=39	=39
8FF\L	16g/LL	.	(8g/L	-de-	.
.	16a/	.	.	.	.
8C\J 8B-	16b-/	.	8a/J)	.	.
.	16cc/JJ	.	.	.	.
8FF\L	16dd\LL	.	4b-\	-rzy	.
.	16ee\	.	.	.	.
8C\J 8B-	16ff\	.	.	.	.
.	16gg\JJ)	.	.	.	.
=40	=40	=40	=40	=40	=40
8FF\L	(16ff\LL	.	(8a\L	w wło-	.
!	!	!LO:HP:b	!	!	!
.	16aa\	<	.	.	.
8C\J 8A	16ccc\	.	16cc\L	.	.
.	16ddd\JJ	.	16dd\JJ	.	.
!	!	!	!	!	!LO:HP:a
8E-X\L	16ccc\LL	.	8cc\)	.	<
.	16aa\	.	.	.	.
8F\J 8A 8c	16ff\	.	8f/	-sy	.
.	16aa\JJ	.	.	.	.
=41	=41	=41	=41	=41	=41
8D\L	16ff\LL	.	(8b-\L	jej	.
.	16fff\	.	.	.	.
8F\J 8B- 8d	16ddd\	.	8dd\	.	.
.	16bb-\JJ	.	.	.	.
8D\L	16ff\LL	.	8ff\J)	.	.
.	16dd\	.	.	.	.
8F\J 8B-	16b-\	.	8ff\	krę-	[
.	16f\JJ	[	.	.	.
=42	=42	=42	=42	=42	=42
!	!	!	!	!	!LO:HP:a
!	!	!LO:HP:b	!	!	!
8C\L	16a\LL	>	(4a/	-co-	>
.	16ff\	.	.	.	.
8A\J 8c	16a\	.	.	.	.
.	16f\JJ	.	.	.	.
8C\L	16e/LL	.	4g/)	.	]]
.	16cc/	.	.	.	.
8G\J 8B-	16e/	.	.	.	.
.	16c/JJ)	]	.	.	.
!!LO:LB:g=original	!	!	!	!	!
=43	=43	=43	=43	=43	=43
!	!LO:TX:b:B:t=Piu mosso.	!	!LO:TX:a:B:t=Piu mosso.	!	!
8r	8f/L	.	4f/	-ne.	.
8D\L 8B-	8f/ 8ff	.	.	.	.
8D\ 8B-	8f/ 8ee	.	4r	.	.
8D\J 8B-	8f/J 8dd	.	.	.	.
=44	=44	=44	=44	=44	=44
8D\L 8B-	8f/L 8cc	.	2r	.	.
8D\ 8B-	8f/ 8b-	.	.	.	.
8D\J 8B-	8f/J 8b-	.	.	.	.
8r	8r	.	.	.	.
=45	=45	=45	=45	=45	=45
8r	8f/L	.	2r	.	.
8D\L 8B-	8f/ 8ff	.	.	.	.
8D\ 8B-	8f/ 8ee	.	.	.	.
8D\J 8B-	8f/J 8dd	.	.	.	.
=46	=46	=46	=46	=46	=46
8D\L 8B-	8f/L 8cc	.	2r	.	.
8D\ 8B-	8f/ 8b-	.	.	.	.
8D\J 8B-	8f/J 8b-	.	.	.	.
8r	[8f/	.	.	.	.
=47	=47	=47	=47	=47	=47
4r	4f/] 4cc#X	.	4r	.	.
4A\ 4e-X	8.f/L	.	8.f/	Daj	.
.	[16f/Jk	.	16f/	mi	.
=48	=48	=48	=48	=48	=48
4r	4f/] 4dd	.	4dd\	po-	.
4B-\ 4d	8.f/L	.	4f/	-kój,	.
.	[16f/Jk	.	.	.	.
=49	=49	=49	=49	=49	=49
4r	4f/] 4cc#X	.	4r	.	.
4A\ 4e-X	8.f/L	.	8.f/	mo-	.
.	[16f/Jk	.	16f/	-ja	.
=50	=50	=50	=50	=50	=50
4r	4f/] 4dd	.	4dd\	mi-	.
4B-\ 4d	8.f/L	.	4f/	-ła	.
.	16f/Jk	.	.	.	.
!!LO:LB:g=original	!	!	!	!	!
!!LO:PB:g=original	!	!	!	!	!
=51	=51	=51	=51	=51	=51
8r	8g\L	.	2r	.	.
8En\L 8c	8g\ 8gg	.	.	.	.
8E\ 8c	8g\ 8ff	.	.	.	.
8E\J 8c	8g\J 8een	.	.	.	.
=52	=52	=52	=52	=52	=52
8E\L 8c	8g\L 8dd	.	2r	.	.
8E\ 8c	8g\ 8cc	.	.	.	.
8E\J 8c	8g\J 8cc	.	.	.	.
8r	8r	.	.	.	.
=53	=53	=53	=53	=53	=53
8r	8g\L	.	2r	.	.
8E\L 8c	8g\ 8gg	.	.	.	.
8E\ 8c	8g\ 8ff	.	.	.	.
8E\J 8c	8g\J 8ee	.	.	.	.
=54	=54	=54	=54	=54	=54
8E\L 8c	8g\L 8dd	.	2r	.	.
8E\ 8c	8g\ 8cc	.	.	.	.
8E\J 8c	8g\J 8cc	.	.	.	.
8r	[8g/	.	.	.	.
=55	=55	=55	=55	=55	=55
*	*^	*	*	*	*
4r	4dd#X/	4g\]	.	4r	.	.
4Bn\ 4f	8.g/L	4ryy	.	4g/	nie	.
.	[16g/Jk	.	.	.	.	.
=56	=56	=56	=56	=56	=56	=56
4r	4ee/	4g\]	.	4ee\	mo-	.
4c\ 4e	8.g/L	4ryy	.	4g/	-gę,	.
.	(>16g/Jk	.	.	.	.	.
=57	=57	=57	=57	=57	=57	=57
4r	4dd#X/)	4g\	.	4r	.	.
4Bn\ 4f	8.g/L	4ryy	.	4g/	nie	.
.	16g/Jk	.	.	.	.	.
*	*v	*v	*	*	*	*
!!LO:LB:g=original	!	!	!	!	!
=58	=58	=58	=58	=58	=58
4r	4ee\	.	4ee\	mo-	.
4c\ 4e	8.g/L	.	4g/	-gę.	.
.	16g/Jk	.	.	.	.
=59	=59	=59	=59	=59	=59
!	!	!	!	!	!LO:HP:a
8r	8a\L	.	4a/	Twój	<
!	!	!LO:HP:b	!	!	!
8F\L 8c	8a\ 8aa	<	.	.	.
8F\ 8c	8a\ 8ff	.	4a/	bra-	.
8F\J 8c	8a\J 8ee	.	.	.	.
=60	=60	=60	=60	=60	=60
8F\L 8c	8a\L 8dd	.	4dd\	-ci-	.
8F\ 8c	8a\ 8aa	.	.	.	.
8F\ 8c	8a\ 8ff	.	4dd\	-szek	.
8F\J 8c	8a\J 8ee	.	.	.	.
=61	=61	=61	=61	=61	=61
8F\L 8c	8a\L 8dd	.	4ff\	mnie	.
8F\ 8c	8a\ 8aa	.	.	.	.
8F\ 8c	8a\ 8ff	.	4ff\	wy-	.
8F\J 8c	8a\J 8ee	.	.	.	.
=62	=62	=62	=62	=62	=62
8F\L 8c	8a\L 8dd	.	4ff\	-sy-	.
8F\ 8c	8a\ 8aa	.	.	.	.
8F\ 8c	8a\ 8ff	.	8ff\	-ła	.
8F\J 8c	8a\J 8ff	.	8ff\	do	.
=63	=63	=63	=63	=63	=63
*	*^	*	*	*	*
4r	4ee/	4r	.	4ee\	cie-	.
4F\ 4c	8.dd/L	4a-X\	.	8ee\	-bie	.
.	.	.	.	8ee\	na	.
.	16dd/Jk	.	.	.	.	.
=64	=64	=64	=64	=64	=64	=64
4r	4ee/	4r	.	4ee\	dro-	.
4F\ 4c	8.dd/L	4a-X\	.	4dd\	-gę	.
.	16dd/Jk	.	.	.	.	.
!!LO:LB:g=original	!	!	!	!	!	!
=65	=65	=65	=65	=65	=65	=65
4r	4ee^/	4r	.	4ee^\	Co-	.
4Bn\ 4f	8.dd/L	4a-X\	.	4dd\	-dzień	.
.	(16dd/Jk	.	.	.	.	.
*	*v	*v	*	*	*	*
=66	=66	=66	=66	=66	=66
4r	4g/)	.	4g/	on	.
4c\ 4e	8.cc/L	.	4cc\	z za	.
.	(>16cc/Jk	.	.	.	.
=67	=67	=67	=67	=67	=67
*	*^	*	*	*	*
4r	4dd^/)	4r	.	4dd^\	rdza-	.
4A\ 4e-X	8.cc/L	4g-X\	.	4cc\	-wej	.
.	(16cc/Jk	.	.	.	.	.
*	*v	*v	*	*	*	*
=68	=68	=68	=68	=68	=68
4r	4f/)	.	4f/	kra-	.
4B-\ 4d	8.b-/L	.	4b-\	-ty	.
.	(>16b-/Jk	.	.	.	.
=69	=69	=69	=69	=69	=69
*	*^	*	*	*	*
4r	4cc^/)	4r	.	4cc^\	śpie-	.
4G\ 4d-X	8.b-/L	4f-X\	.	4b-\	-wa	.
.	(16b-/Jk	.	.	.	.	.
*	*v	*v	*	*	*	*
=70	=70	=70	=70	=70	=70
4r	4e-X/)	.	4e-X/	pios-	.
4A-X\ 4c	8.a-X/L	.	4a-X/	-nkę	.
.	(>16a-/Jk	.	.	.	.
=71	=71	=71	=71	=71	=71
*	*^	*	*	*	*
!	!LO:TX:b:i:t=rit.un poco	!	!	!LO:TX:a:i:t=rit.un poco	!	!
4r	4b-^/)	4r	.	4b-^\	swo-	.
4G-X\ 4c	8.an/L	4e-X\	.	4an/	-ją	.
.	(16a/Jk	.	.	.	.	.
!!LO:LB:g=original	!	!	!	!	!	!
=72	=72	=72	=72	=72	=72	=72
4r	4b-^/)	4r	.	4b-^\	pios-	.
4F\ 4c	8.a/L	4d#X\	.	4a/	-nkę	.
.	16a/Jk	.	.	.	.	.
*	*v	*v	*	*	*	*
=73	=73	=73	=73	=73	=73
!	!	!	!LO:TX:a:i:t=espress.	!	!
!	!LO:TX:b:B:t=Tempo I.	!	!LO:TX:a:B:t=Tempo I.	!	!
8E\L	(16eee\LL	.	4a/	Jas-	.
.	16ddd\	.	.	.	.
8A\J 8c	16ccc\	.	.	.	.
.	16bbn\JJ	.	.	.	.
8E\L	16aa\LL	.	4cc\	-kó-	.
.	16gg\	.	.	.	.
8A\J 8c	16ff\	.	.	.	.
.	16ee\JJ	.	.	.	.
=74	=74	=74	=74	=74	=74
8E\L	16ee\LL	.	4ee^\	-łe-	.
.	16dd\	.	.	.	.
8G#X\J 8Bn	16cc\	.	.	.	.
.	16bn\JJ	.	.	.	.
8E\L	16a/LL	.	4ff\	-czko	.
.	16g#X/	.	.	.	.
8G#\J 8B	16f/	.	.	.	.
.	16e/JJ)	.	.	.	.
=75	=75	=75	=75	=75	=75
8AA\L	(16a\LL	.	(8ee\L	leć	.
.	16cc\	.	.	.	.
8E\J 8c	16ee\	.	8cc\	.	.
.	16ff\JJ	.	.	.	.
8AA\L	16ee\LL	.	8bn\J)	.	.
.	16cc\	.	.	.	.
8E\J 8c	16a\	.	8a/	do	.
.	16cc\JJ	.	.	.	.
=76	=76	=76	=76	=76	=76
8AA\L	16g#X\LL	.	(8bn/L	cha-	.
.	16bn\	.	.	.	.
8E\J 8d	16ee\	.	8g#X/J)	.	.
.	16ff\JJ	.	.	.	.
8AA\L	16ee\LL	.	4e/	-ty,	.
.	16b\	.	.	.	.
8E\J 8d	16g#\	.	.	.	.
.	16b\JJ)	.	.	.	.
=77	=77	=77	=77	=77	=77
8AA\L	(16eee\LL	.	4a/	Ja-	.
.	16ddd\	.	.	.	.
8E\J 8c	16ccc\	.	.	.	.
.	16bbn\JJ	.	.	.	.
8AA\L	16aa\LL	.	4cc\	-skó-	.
.	16ggn\	.	.	.	.
8E\J 8c	16ff\	.	.	.	.
.	16ee\JJ	.	.	.	.
!!LO:LB:g=original	!	!	!	!	!
!!LO:PB:g=original	!	!	!	!	!
=78	=78	=78	=78	=78	=78
8AA\L	16ee\LL	.	4ee\	-łe-	.
.	16dd\	.	.	.	.
8E\J 8d	16cc\	.	.	.	.
.	16b-\JJ	.	.	.	.
8AA\L	16a/LL	.	4ff\	-czko	.
.	16g#X/	.	.	.	.
8E\J 8d	16f/	.	.	.	.
.	16e/JJ)	.	.	.	.
=79	=79	=79	=79	=79	=79
8AA\L	(16a\LL	.	8ee\	zo-	.
.	16cc\	.	.	.	.
8E\J 8c	16ee\	.	8cc\	-bacz	.
.	16ff\JJ	.	.	.	.
8AA\L	16ee\LL	.	8bn\	sios-	.
.	16cc\	.	.	.	.
8E\J 8c	16a\	.	8a/	-trę	.
.	16cc\JJ	.	.	.	.
=80	=80	=80	=80	=80	=80
8E\L	16g#X\LL	.	(8bn/L	mo-	.
.	16bn\	.	.	.	.
8G#X\J 8Bn	16ee\	.	8g#X/J	.	.
.	16ff\JJ	.	.	.	.
8E\L	16ee\LL	.	4e/)	.	.
.	16b\	.	.	.	.
8G#\J 8B	16g#\	.	.	.	.
.	16b\JJ	.	.	.	.
=81	=81	=81	=81	=81	=81
8E\L	16g#X\LL	.	2e/	-ją.	.
.	16bn\	.	.	.	.
8G#X\J 8Bn	16ee\	.	.	.	.
.	16ff\JJ	.	.	.	.
8E\L	16ee\LL	.	.	.	.
.	16b\	.	.	.	.
8G#\J 8B	16g#\	.	.	.	.
.	16b\JJ)	.	.	.	.
=82	=82	=82	=82	=82	=82
8C'\L	8r	.	(8f/	Czy	.
8A'\J 8c	4f^\ 4a 4ff	.	4ff\)	.	.
8C'\L	.	.	.	.	.
8A'\J	8c'/ 8f 8cc	.	8f/	jej	.
=83	=83	=83	=83	=83	=83
!LO:TX:b:i:t=stacc.	!	!	!	!	!
8C\L	8r	.	(8g/L	sro-	.
8B-\J	4c^/ 4e 4cc	.	8a/J)	.	.
8C\L	.	.	4b-\	-dze	.
8B-\J	8c'/ 8e 8cc	.	.	.	.
!!LO:LB:g=original	!	!	!	!	!
=84	=84	=84	=84	=84	=84
8C\L	8r	.	(8a/	o-	.
8A\	4c^/ 4f 4cc	.	4cc\)	.	.
8C\	.	.	.	.	.
8A\J	8c'/ 8f 8cc	.	8f/	-czy	.
=85	=85	=85	=85	=85	=85
8C\L	8r	.	(8g/L	du-	.
8B-\	4c^/ 4e 4cc	.	8a/J)	.	.
8C\	.	.	4b-\	-że	.
8B-\J	8c'/ 8e 8cc	.	.	.	.
=86	=86	=86	=86	=86	=86
8C\L	8r	.	(8a/	ci-	.
8A\	4c^/ 4f 4cc	.	4cc\)	.	.
8C\	.	.	.	.	.
8A\J	8c'/ 8f 8cc	.	8e/	-cha	.
=87	=87	=87	=87	=87	=87
*^	*	*	*	*	*
(<8A-X/L	2BBn\	8r	.	(8f/L	łza	.
8G/	.	4d^/ 4f 4dd	.	8g/	.	.
8F'</)	.	.	.	8g#X/J)	.	.
8F'</J	.	8d'/ 8g#X 8dd	.	8g#/	nie	.
*v	*v	*	*	*	*	*
=88	=88	=88	=88	=88	=88
8C'\L	8r	.	(4a/	ro-	.
8F'\	8c'/ 8a 8cc	.	.	.	.
8C'\	8r	.	4gn/)	.	.
8B-'\J	8e'/ 8g	.	.	.	.
=89	=89	=89	=89	=89	=89
8D'\L	8ryy	.	2f/	-si	.
8A'\	4f^/	.	.	.	.
8D'\	.	.	.	.	.
8A'\J	8f'/	.	.	.	.
=90	=90	=90	=90	=90	=90
!	!LO:TX:b:i:t=sempre piu	!	!LO:TX:a:i:t=sempre piu sforzando	!	!
8E-X\L	16r	.	(8f/	I	.
.	(16a/LL	.	.	.	.
8F\J 8A 8c	16ff/	.	4ff\)	.	.
.	16a/JJ	.	.	.	.
8E-\L	16f/LL	.	.	.	.
.	16a/	.	.	.	.
8F\J 8A 8c	16f/	.	8f/	czy	.
.	16a/JJ)	.	.	.	.
!!LO:LB:g=original	!	!	!	!	!
=91	=91	=91	=91	=91	=91
8D\L	16r	.	(8g/L	je-	.
.	(16g/LL	.	.	.	.
8F\J 8B-	16ff/	.	8a/J)	.	.
.	16g/JJ	.	.	.	.
8D\L	16f/LL	.	4b-\	-szcze	.
.	16g/	.	.	.	.
8F\J 8B-	16f/	.	.	.	.
.	16g/JJ)	.	.	.	.
=92	=92	=92	=92	=92	=92
!	!LO:TX:b:i:t=sforzando	!	!	!	!
8C\L	16r	.	(8a/	bia-	.
.	(16a/LL	.	.	.	.
8F\J 8A 8c	16ff/	.	4ff\)	.	.
.	16a/JJ	.	.	.	.
8C\L	16f/LL	.	.	.	.
.	16a/	.	.	.	.
8F\J 8A 8c	16f/	.	8f/	-łą	.
.	16a/JJ)	.	.	.	.
=93	=93	=93	=93	=93	=93
8D-X\L	16r	.	(8g/L	ró-	.
.	(16g/LL	.	.	.	.
8F\J 8G 8B-	16ff/	.	8a/J)	.	.
.	16g/JJ	.	.	.	.
8D-\L	16f/LL	.	4b-\	-że	.
.	16g/	.	.	.	.
8F\J 8G 8B-	16f/	.	.	.	.
.	16g/JJ)	.	.	.	.
=94	=94	=94	=94	=94	=94
8C\L	16r	.	(8a/	W ja-	.
.	(16a/LL	.	.	.	.
8F\J 8A 8e-X	16ff/	.	4ff\)	.	.
.	16a/JJ	.	.	.	.
8C\L	16f/LL	.	.	.	.
.	16a/	.	.	.	.
8F\J 8A 8e-	16f/	.	8f/	-snych	.
.	16a/JJ)	.	.	.	.
=95	=95	=95	=95	=95	=95
8BB-\L	16r	.	(8g/L	wło-	.
.	(16g/LL	.	.	.	.
8F\J 8G 8d-X	16ff/	.	8a/J)	.	.
.	16g/JJ	.	.	.	.
8BB-\L	16f/LL	.	4b-\	-sach	.
.	16g/	.	.	.	.
8F\J 8G 8d-	16f/	.	.	.	.
.	16g/JJ)	.	.	.	.
!!LO:LB:g=original	!	!	!	!	!
=96	=96	=96	=96	=96	=96
*	*^	*	*	*	*
!	!	!	!	!	!	!LO:HP:a:t=dim.
8C\L	(>16f/LL	4ryy	.	(4a/	no-	>
.	16cc/	.	.	.	.	.
8A\J	16f/	.	.	.	.	.
.	16c/JJ	.	.	.	.	.
8C\L	16ryy	16e\LL	.	8.g/L	.	.
.	[8.cc/	16cc\	.	.	.	.
8B-\J	.	16e\	.	.	.	.
.	.	16c\JJ	.	16f/Jk)	.	.
*	*v	*v	*	*	*	*
=97	=97	=97	=97	=97	=97
!	!	!LO:DY:b	!	!	!
8FF/	8a/) 8cc]	pp	[2cc\	-si.	.
8F'\L 8c	8a'\L 8aa	.	.	.	.
8F'\ 8c	8a'\ 8ff	.	.	.	.
8F'\J 8c	8a'\J 8ee	.	.	.	.
=98	=98	=98	=98	=98	=98
8F'\L 8c	8a'\L 8dd	.	2cc\_	.	.
8F'\ 8c	8a'\ 8cc	.	.	.	.
.	8qee/	.	.	.	.
8F'\ 8c	8a'\ 8dd	.	.	.	.
8F'\J 8c	8a'\J 8cc	.	.	.	.
=99	=99	=99	=99	=99	=99
.	8qee/	.	.	.	.
8F'\L 8c	8a'\L 8dd	.	4cc\]	.	.
8F'\ 8c	8a'\ 8cc	.	.	.	.
.	8qee/	.	.	.	.
8F'\ 8c	8a'\ 8dd	.	4r	.	.
8F'\J 8c	8a'\J 8cc	.	.	.	.
=100	=100	=100	=100	=100	=100
!	!LO:TX:a:i:t=riten.	!	!	!	!
.	8qee/	.	.	.	.
8F'\L 8c	8a'\L 8dd	.	2r	.	.
8F'\ 8c	8a'\ 8cc	.	.	.	.
.	8qee/	.	.	.	.
8F'\ 8c	8g#X'\ 8dd	.	.	.	.
8F'\J 8c	8g#'\J 8cc	.	.	.	.
=101	=101	=101	=101	=101	=101
2F;<\ 2c	2a;\ 2ff	.	2r;	.	.
==	==	==	==	==	==
*-	*-	*-	*-	*-	*-
!!!system-decoration: s1{(s2,s3)}
!!!RDF**kern: > = above
!!!RDF**kern: < = below
!!!ENC: Anastazja Marusiak
!!!END: 2022-03-14
!!!ENC: Natalia Wrzos
!!!END: 2022-03-21
